build/svg/cmd/sc_line_diagonal.svg

<?xml version="1.0" encoding="UTF-8" standalone="no"?>
<svg
   xmlns:dc="http://purl.org/dc/elements/1.1/"
   xmlns:cc="http://creativecommons.org/ns#"
   xmlns:rdf="http://www.w3.org/1999/02/22-rdf-syntax-ns#"
   xmlns:svg="http://www.w3.org/2000/svg"
   xmlns="http://www.w3.org/2000/svg"
   xmlns:sodipodi="http://sodipodi.sourceforge.net/DTD/sodipodi-0.dtd"
   xmlns:inkscape="http://www.inkscape.org/namespaces/inkscape"
   viewBox="0 0 16 16"
   version="1.1"
   id="svg4"
   sodipodi:docname="sc_line_diagonal.svg"
   inkscape:version="0.92.4 (5da689c313, 2019-01-14)"><metadata
   id="metadata10">
  <rdf:RDF>
    <cc:Work
       rdf:about="">
      <dc:format>image/svg+xml</dc:format>
      <dc:type
         rdf:resource="http://purl.org/dc/dcmitype/StillImage" />
    </cc:Work>
  </rdf:RDF>
</metadata>
<defs
   id="defs8" />
<sodipodi:namedview
   pagecolor="#ffffff"
   bordercolor="#666666"
   borderopacity="1"
   objecttolerance="10"
   gridtolerance="10"
   guidetolerance="10"
   inkscape:pageopacity="0"
   inkscape:pageshadow="2"
   inkscape:window-width="1920"
   inkscape:window-height="1011"
   id="namedview6"
   showgrid="false"
   inkscape:zoom="14.75"
   inkscape:cx="0.44067797"
   inkscape:cy="8"
   inkscape:window-x="0"
   inkscape:window-y="32"
   inkscape:window-maximized="1"
   inkscape:current-layer="svg4" />
/&gt;<path
   style="fill:#000000;stroke:#000000;opacity:0.6;stroke-width:2;stroke-miterlimit:4;stroke-dasharray:none;stroke-linejoin:round"
   id="path817"
   fill="#232629"
   d="m2 2v1h1v-1zm10.5625 0-9.5625 9.5625v-.5625h-1v1 .5625 1.4375h1.4375.5625 1v-1h-.5625l9.5625-9.5625zm-10.5625 3v1h1v-1zm0 3v1h1v-1zm5 5v1h1v-1zm3 0v1h1v-1zm3 0v1h1v-1z" />
<path
   d="m2 2v1h1v-1zm10.5625 0-9.5625 9.5625v-.5625h-1v1 .5625 1.4375h1.4375.5625 1v-1h-.5625l9.5625-9.5625zm-10.5625 3v1h1v-1zm0 3v1h1v-1zm5 5v1h1v-1zm3 0v1h1v-1zm3 0v1h1v-1z"
   fill="#232629"
   id="path2"
   style="fill:#ffffff" />
</svg>

<svg xmlns="http://www.w3.org/2000/svg" viewBox="0 0 16 16">/&gt;<path d="M2 2v1h1V2zm10.563 0L3 11.563V11H2v3h3v-1h-.563L14 3.437zM2 5v1h1V5zm0 3v1h1V8zm5 5v1h1v-1zm3 0v1h1v-1zm3 0v1h1v-1z" stroke="#000" opacity=".6" stroke-width="2" stroke-linejoin="round"/><path d="M2 2v1h1V2zm10.563 0L3 11.563V11H2v3h3v-1h-.563L14 3.437zM2 5v1h1V5zm0 3v1h1V8zm5 5v1h1v-1zm3 0v1h1v-1zm3 0v1h1v-1z" fill="#fff"/></svg>
